X:3
T:Catch It In the Corner 
B:Terry "Cuz" Teahan "Sliabh Luachra on Parade" 1980
Z:Patrick Cavanagh
M:6/8
L:1/8
R:Jig
K:G
g || eAA GAA | BAd ABd | eAA GAA | BAB gfg | 
eAA GAA | BAd ABd | ede gdB | BAA A3 :| 
d | e2f ged | gaa ged | e2f ged | efg a2a | 
bff aff | ged Bcd | efe gdB | BAA A3 :|| 

